icon/lg/rollupjs.svg

<?xml version="1.0" encoding="UTF-8"?>
<svg viewBox="0 0 256 335" version="1.1" xmlns="http://www.w3.org/2000/svg" xmlns:xlink="http://www.w3.org/1999/xlink" preserveAspectRatio="xMidYMid" height="1em" width="1em">
  <defs>
    <linearGradient x1="26.8242921%" y1="48.2236445%" x2="67.5758137%" y2="55.339338%" id="linearGradient-1">
      <stop stop-color="#FF6533" offset="0%"/>
      <stop stop-color="#FF5633" offset="15.7%"/>
      <stop stop-color="#FF4333" offset="43.4%"/>
      <stop stop-color="#FF3733" offset="71.4%"/>
      <stop stop-color="#FF3333" offset="100%"/>
    </linearGradient>
    <linearGradient x1="20.4503837%" y1="38.1333935%" x2="93.4858428%" y2="80.4322382%" id="linearGradient-2">
      <stop stop-color="#BF3338" offset="0%"/>
      <stop stop-color="#FF3333" offset="100%"/>
    </linearGradient>
    <linearGradient x1="32.2926113%" y1="39.496861%" x2="45.5563705%" y2="48.9139013%" id="linearGradient-3">
      <stop stop-color="#FF6533" offset="0%"/>
      <stop stop-color="#FF5633" offset="15.7%"/>
      <stop stop-color="#FF4333" offset="43.4%"/>
      <stop stop-color="#FF3733" offset="71.4%"/>
      <stop stop-color="#FF3333" offset="100%"/>
    </linearGradient>
    <linearGradient x1="51.5641026%" y1="78.3444231%" x2="48.5176441%" y2="41.6628279%" id="linearGradient-4">
      <stop stop-color="#FF6533" offset="0%"/>
      <stop stop-color="#FF5633" offset="15.7%"/>
      <stop stop-color="#FF4333" offset="43.4%"/>
      <stop stop-color="#FF3733" offset="71.4%"/>
      <stop stop-color="#FF3333" offset="100%"/>
    </linearGradient>
    <linearGradient x1="40.2012262%" y1="47.2148639%" x2="53.9750044%" y2="54.5349876%" id="linearGradient-5">
      <stop stop-color="#FBB040" offset="0%"/>
      <stop stop-color="#FB8840" offset="100%"/>
    </linearGradient>
    <linearGradient x1="55.2222794%" y1="5.88782542%" x2="40.9262994%" y2="128.016462%" id="linearGradient-6">
      <stop stop-color="#FFFFFF" offset="0%"/>
      <stop stop-color="#FFFFFF" stop-opacity="0" offset="100%"/>
    </linearGradient>
  </defs>
  <g>
    <path d="M256,110.132723 C256,90.4494279 250.844851,71.9963387 241.76476,56.0036613 C217.687872,31.2237986 165.316247,25.4828375 152.311213,55.8864989 C138.954691,87.0517162 174.747826,121.731808 190.389016,118.97849 C210.306636,115.463616 186.874142,69.7702517 186.874142,69.7702517 C217.336384,127.179863 210.306636,109.605492 155.240275,162.328604 C100.173913,215.051716 43.9359268,326.297483 35.7345538,330.983982 C35.3830664,331.218307 35.0315789,331.39405 34.6215103,331.569794 L250.610526,331.569794 C254.418307,331.569794 256.878719,327.527689 255.179863,324.129977 L198.707551,212.356979 C197.477346,209.955149 198.356064,206.967506 200.699314,205.620137 C233.73913,186.639817 256,151.022426 256,110.132723 Z" fill="url(#linearGradient-1)"/>
    <path d="M256,110.132723 C256,90.4494279 250.844851,71.9963387 241.76476,56.0036613 C217.687872,31.2237986 165.316247,25.4828375 152.311213,55.8864989 C138.954691,87.0517162 174.747826,121.731808 190.389016,118.97849 C210.306636,115.463616 186.874142,69.7702517 186.874142,69.7702517 C217.336384,127.179863 210.306636,109.605492 155.240275,162.328604 C100.173913,215.051716 43.9359268,326.297483 35.7345538,330.983982 C35.3830664,331.218307 35.0315789,331.39405 34.6215103,331.569794 L250.610526,331.569794 C254.418307,331.569794 256.878719,327.527689 255.179863,324.129977 L198.707551,212.356979 C197.477346,209.955149 198.356064,206.967506 200.699314,205.620137 C233.73913,186.639817 256,151.022426 256,110.132723 Z" fill="url(#linearGradient-2)"/>
    <path d="M35.7345538,330.983982 C43.9359268,326.297483 100.173913,214.993135 155.240275,162.270023 C210.306636,109.546911 217.336384,127.121281 186.874142,69.7116705 C186.874142,69.7116705 70.2974828,233.153318 28.1189931,313.995423" fill="url(#linearGradient-3)"/>
    <path d="M52.1372998,184.530892 C130.870481,39.776659 141.180778,25.1899314 182.187643,25.1899314 C203.745538,25.1899314 225.479176,34.9144165 239.538673,52.195881 C220.382609,21.3235698 186.464073,0.644393593 147.624714,0.0585812357 L13.8837529,0.0585812357 C11.0718535,0.0585812357 8.78718535,2.34324943 8.78718535,5.15514874 L8.78718535,274.745995 C16.7542334,254.183982 30.2864989,224.776201 52.1372998,184.530892 Z" fill="url(#linearGradient-4)"/>
    <path d="M155.240275,162.270023 C100.173913,214.993135 43.9359268,326.297483 35.7345538,330.983982 C27.5331808,335.670481 13.7665904,336.256293 6.44393593,328.05492 C-1.34736842,319.326316 -13.4736842,305.208238 52.1372998,184.530892 C130.870481,39.776659 141.180778,25.1899314 182.187643,25.1899314 C203.745538,25.1899314 225.479176,34.9144165 239.538673,52.195881 C240.300229,53.426087 241.061785,54.7148741 241.823341,56.0036613 C217.746453,31.2237986 165.374828,25.4828375 152.369794,55.8864989 C139.013272,87.0517162 174.806407,121.731808 190.447597,118.97849 C210.365217,115.463616 186.932723,69.7702517 186.932723,69.7702517 C217.336384,127.121281 210.306636,109.546911 155.240275,162.270023 Z" fill="url(#linearGradient-5)"/>
    <path d="M58.5812357,190.974828 C137.314416,46.220595 147.624714,31.6338673 188.631579,31.6338673 C206.381693,31.6338673 224.24897,38.2535469 237.839817,50.204119 C223.78032,34.1528604 202.9254,25.1899314 182.187643,25.1899314 C141.180778,25.1899314 130.870481,39.776659 52.1372998,184.530892 C-13.4736842,305.208238 -1.34736842,319.326316 6.44393593,328.05492 C7.55697941,329.285126 8.84576659,330.339588 10.193135,331.218307 C3.33913043,321.259497 0.292906178,298.119908 58.5812357,190.974828 Z" fill="url(#linearGradient-6)" opacity="0.3"/>
  </g>
</svg>

<svg width="256" height="335" xmlns="http://www.w3.org/2000/svg" preserveAspectRatio="xMidYMid"><defs><linearGradient x1="26.824%" y1="48.224%" x2="67.576%" y2="55.339%" id="a"><stop stop-color="#FF6533" offset="0%"/><stop stop-color="#FF5633" offset="15.7%"/><stop stop-color="#FF4333" offset="43.4%"/><stop stop-color="#FF3733" offset="71.4%"/><stop stop-color="#F33" offset="100%"/></linearGradient><linearGradient x1="20.45%" y1="38.133%" x2="93.486%" y2="80.432%" id="b"><stop stop-color="#BF3338" offset="0%"/><stop stop-color="#F33" offset="100%"/></linearGradient><linearGradient x1="32.293%" y1="39.497%" x2="45.556%" y2="48.914%" id="c"><stop stop-color="#FF6533" offset="0%"/><stop stop-color="#FF5633" offset="15.7%"/><stop stop-color="#FF4333" offset="43.4%"/><stop stop-color="#FF3733" offset="71.4%"/><stop stop-color="#F33" offset="100%"/></linearGradient><linearGradient x1="51.564%" y1="78.344%" x2="48.518%" y2="41.663%" id="d"><stop stop-color="#FF6533" offset="0%"/><stop stop-color="#FF5633" offset="15.7%"/><stop stop-color="#FF4333" offset="43.4%"/><stop stop-color="#FF3733" offset="71.4%"/><stop stop-color="#F33" offset="100%"/></linearGradient><linearGradient x1="40.201%" y1="47.215%" x2="53.975%" y2="54.535%" id="e"><stop stop-color="#FBB040" offset="0%"/><stop stop-color="#FB8840" offset="100%"/></linearGradient><linearGradient x1="55.222%" y1="5.888%" x2="40.926%" y2="128.016%" id="f"><stop stop-color="#FFF" offset="0%"/><stop stop-color="#FFF" stop-opacity="0" offset="100%"/></linearGradient></defs><path d="M256 110.133c0-19.684-5.155-38.137-14.235-54.13-24.077-24.78-76.449-30.52-89.454-.117-13.356 31.166 22.437 65.846 38.078 63.092 19.918-3.514-3.515-49.208-3.515-49.208 30.462 57.41 23.433 39.835-31.634 92.559-55.066 52.723-111.304 163.968-119.505 168.655-.352.234-.703.41-1.113.586H250.61c3.807 0 6.268-4.042 4.569-7.44l-56.472-111.773c-1.23-2.402-.352-5.39 1.991-6.737C233.74 186.64 256 151.022 256 110.133Z" fill="url(#a)"/><path d="M256 110.133c0-19.684-5.155-38.137-14.235-54.13-24.077-24.78-76.449-30.52-89.454-.117-13.356 31.166 22.437 65.846 38.078 63.092 19.918-3.514-3.515-49.208-3.515-49.208 30.462 57.41 23.433 39.835-31.634 92.559-55.066 52.723-111.304 163.968-119.505 168.655-.352.234-.703.41-1.113.586H250.61c3.807 0 6.268-4.042 4.569-7.44l-56.472-111.773c-1.23-2.402-.352-5.39 1.991-6.737C233.74 186.64 256 151.022 256 110.133Z" fill="url(#b)"/><path d="M35.735 330.984c8.2-4.687 64.439-115.99 119.505-168.714 55.067-52.723 62.096-35.149 31.634-92.558 0 0-116.577 163.441-158.755 244.283" fill="url(#c)"/><path d="M52.137 184.53C130.87 39.778 141.181 25.19 182.187 25.19c21.559 0 43.292 9.724 57.352 27.006C220.383 21.324 186.464.644 147.625.059H13.884a5.1 5.1 0 0 0-5.097 5.096v269.591c7.967-20.562 21.5-49.97 43.35-90.215Z" fill="url(#d)"/><path d="M155.24 162.27C100.174 214.993 43.936 326.297 35.735 330.984c-8.202 4.686-21.968 5.272-29.291-2.93-7.791-8.728-19.918-22.846 45.693-143.523C130.87 39.777 141.181 25.19 182.187 25.19c21.559 0 43.292 9.724 57.352 27.006.761 1.23 1.523 2.519 2.284 3.808-24.077-24.78-76.448-30.521-89.453-.118-13.357 31.166 22.436 65.846 38.078 63.092 19.917-3.514-3.515-49.208-3.515-49.208 30.403 57.351 23.374 39.777-31.693 92.5Z" fill="url(#e)"/><path d="M58.581 190.975C137.314 46.22 147.625 31.634 188.631 31.634c17.75 0 35.618 6.62 49.209 18.57-14.06-16.051-34.915-25.014-55.652-25.014-41.007 0-51.318 14.587-130.05 159.34C-13.475 305.209-1.348 319.327 6.443 328.056c1.113 1.23 2.402 2.285 3.75 3.163C3.338 321.26.292 298.12 58.58 190.975Z" fill="url(#f)" opacity=".3"/></svg>
